X:1
T:L'aspido pien di morte
T:Adriano Banchieri Bolognese
T:Source : Canzonette a tre voci di A.Banchieri---Venetia---R.Amadino---1597. Editor : André Vierendeels (10/03/17).
T:Notes : Original Clefs : C1, C1, F4 Editorial accidentals above the staff Sub-heading : "Canzonetta"     
T:L'aspido pien di morte
T:©
T:©
T:©
T:©
C:Adriano Banchieri Bolognese
Z:©
%%score [ 1 2 3 ]
L:1/8
Q:1/4=125
M:4/4
K:C
V:1 treble nm="Soprano 1" snm="S 1"
V:2 treble nm="Soprano 2" snm="S 2"
V:3 bass nm="Bass" snm="B"
V:1
 c6 BB | B3 B B4 | e4 d4- | d2 c2 B4 | ^c8 | A6 ^GG | ^G3 G G4 | A4 A2 ^F2 | ^G2 A4 G2 | %9
w: L'as- pi- do|pien di mort'|e di|_ ve- ne-|no,|l'as- pi- do|pien di mort'|e di ve-|ne- * *|
w: Co'l can- to|la Si- re-|na'in- du-|* ce'il son-|no,|co'l can- to|la Si- re-|na'in- du- ce'il|son- * *|
"^-natural" A4 c2 cB | G2 A2 B4 | B2 A4 A2 | B2 c2 d4 | e2 e2 e4 | z2 c2 c2 B2 | A3 G c2 c2 | %16
w: no, chiu- de l'o-|re- chio'al ef-|fi- ca- ce'in-|can- * *|to, e voi,|e voi Clo-|ri cru- del con|
w: no, a i stan-|chi ma- ri-|na- ri poi|gl'uc- ci- *|de, co- si,|co- si voi|Clo- r'in- gra- ta|
 B2 A2 ^G4 | A6 F2 | D3 E F2 G2 | A6 E2 | z4 e4 | d6 c2 | B4 A4 | ^G4 G2 A2 | ^G3 G A2 B2 | %25
w: vo- glia ri-|a, vi|fa- * * te|sor- da,|a|l'as- pra|pe- na|mi- a, a|l'as- pra pe- na|
w: per- ch'io mo-|ra, co'l|vo- * * stro|can- to|m'uc-|ci- de-|te ogn'-|ho- ra, m'uc-|ci- de- te ogn'|
 ^G2 A4 G2 | A2 c2 c4 | z2 e2 e2 d2 | c3 B A2 A2 | ^G2 A2 B4 | ^c4 z2 A2 | F2 D2 d4- | d4 ^c4 | %33
w: mi- * *|a, e voi,|e voi Clo-|ri cru- del con|vo- glia ri-|a, vi|fa- te sor-|* da,|
w: ho- * *|ra, co- si,|co- si voi|Clo- r'in- gra- ta|per- ch'io mo-|ra, co'l|vo- stro can-|* to,|
 z8 | z4 A4 | G6 F2 | E4 E2 c2 | B4 c2 d2- | d2 c2 B4 | ^c8 |] %40
w: |a|l'as- pra|pe- na, a-|l'as- pra pe-|* na mi-|a.|
w: |m'uc-|ci- de-|* te, m'uc-|ci- de- te|_ ogn' ho-|ra.|
V:2
 A6 ^GG | ^G3 G G4 | A4 A2 ^F2 | ^G2 A4 G2 | A8 |"^-natural" c6 BB | B3 B B4 | e4 d4- | d2 c2 B4 | %9
w: L'as- pi- do|pien di mort'|e di ve-|ne- * *|no,|l'as- pi- do|pien di mort'|e di|_ ve- ne-|
w: Si che fer-|mar poss' io|con ar- gu-|men- * *|ti,|si che fer-|mar poss' io|con ar-|* gu- men-|
 ^c4 e2 ed | c2 c2 d4 | e2 c4 c2 | d2 c4 B2 | c2 c2 c4 | z2 e2 e2 d2 | c3 B A2 A2 | ^G2 A2 B4 | %17
w: no, chiu- de l'o-|re- chio'al ef-|fi- ca- ce'in-|can- * *|to, e voi,|e voi Clo-|ri cru- del con|vo- glia ri-|
w: ti, et per la|cru- del- ta|qual da voi|na- * *|sce, che voi,|che voi in-|i- qua Clo- ri'al-|la mia pe-|
 ^c4 z2 A2 | F2 D2 d4- | d4 ^c4 | z8 | z4 A4 | G6 F2 | E4 E2 c2 | B4 c2 d2- | d2 c2 B4 | A2 e2 e4 | %27
w: a, vi|fa- te sor-|* da,||a|l'as- pra|pe- na, a|l'as- pra pe-|* na mi-|a, e voi,|
w: na, as-|pi- do se-|* te,||et|per- fi-|* da, et|per- fi- da|_ Si- re-|na, che voi,|
 z2 c2 c2 B2 | A3 G c2 c2 | B2 A2 ^G4 | A6 F2 | D3 E F2 G2 | A6 E2 | z4 e4 | d6 c2 | B4 A4 | %36
w: e voi Clo-|ri cru- del con|vo- glia ri-|a, vi|fa- * * te|sor- da,|a|l'as- pra|pra pe-|
w: che voi in-|i- qua Clo- ri'al-|la mia pe-|na, as-|pi- * * do|se- te|et|per- fi-|de Si-|
 ^G4 G2 A2 | ^G3 G A2 B2 | ^G2 A4 G2 | A8 |] %40
w: * na, a|l'as- pra pe- na|mi- * *|a.|
w: re- na, et|per- fi- de Si-|re- * *|na.|
V:3
 A,6 E,E, | E,3 E, E,4 | ^C,4 D,2 D,2 | E,8 | A,,8 | A,6 E,E, | E,3 E, E,4 | ^C,4 D,2 D,2 | E,8 | %9
w: L'as- pi- do|pien di mort'|e di ve-|ne-|no,|l'as- pi- do|pien di mort'|e di ve-|ne-|
 A,,4 A,2 A,B, | C2 A,2 G,4 | E,2 F,4 A,2 | G,8 | C,4 z2 C,2 | C,2 C2 C2 G,2 | A,3 B, C2 A,2 | %16
w: no, chiu- de l'o-|re- chio'al af-|fi- ca- ce'in-|can-|to, e|voi, e voi Clo-|ri cru- del con|
 E,2 F,2 E,4 | A,,2 A,2 F,2 D,2 | _B,8 | A,8 | z4 A,4 | ^F,6 F,2 | G,4 D,4 | E,8- | E,8- | E,8 | %26
w: vo- glia ri-|a, vi fa- te|sor-|da,|a|l'as- pra|pe- na|mi-|||
 A,,4 z2 C,2 | C,2 C2 C2 G,2 | A,3 B, C2 A,2 | E,2 F,2 E,4 | A,,2 A,2 F,2 D,2 | _B,8 | A,8 | %33
w: a, e|voi, e voi Clo-|ri cru- del con|vo- glia ri-|a, vi fa- te|sor-|da,|
 z4 A,4 | ^F,6 F,2 | G,4 D,4 | E,8- | E,8- | E,8 | A,,8 |] %40
w: a|l'as- pra|pe- na|mi-|||a.|

